X: 23382
T: Lemmy Brazil's
R: hornpipe
M: 4/4
K: Gmajor
|:(3def|g>dB>A G>Bd>g|e>dc>d e2 f>e|d>gf>e d>B (3cBA|G>Bd>e d2 (3def|
g>dB>A G>Bd>g|e>dc>d e2 f>e|d>gf>e d>B (3cBA|G2 B2 G2:|
|:z2|(3BdB G2 B4|c2 A>Bc>d e>f|g2 f>e d>BG>d|e2 d>B A4|
(3BdB G2 B4|c2 A>B c>de>f|g2 f>ed>B (3GAB|A2 F2 G2:|

